icons/svgs/shield-check-solid.svg

<svg width="24" height="24" viewBox="0 0 24 24" fill="none" xmlns="http://www.w3.org/2000/svg">
<path d="M12.508 2.11719L19.8517 5.24219C20.7111 5.63281 21.3752 6.45312 21.3752 7.46875C21.3361 11.375 19.7345 18.4453 13.0158 21.6875C12.3517 22 11.6095 22 10.9455 21.6875C4.22674 18.4453 2.62517 11.375 2.62517 7.46875C2.58611 6.45312 3.25017 5.63281 4.10955 5.24219L11.4533 2.11719C11.6095 2.03906 11.8049 2 12.0002 2C12.1564 2 12.3517 2.03906 12.508 2.11719ZM16.4142 10.1641H16.3752C16.7658 9.8125 16.7658 9.22656 16.3752 8.83594C16.0236 8.48438 15.4377 8.48438 15.0861 8.83594L10.7502 13.2109L8.91424 11.375C8.52361 10.9844 7.93767 10.9844 7.58611 11.375C7.19549 11.7266 7.19549 12.3125 7.58611 12.6641L10.0861 15.1641C10.4377 15.5547 11.0236 15.5547 11.4142 15.1641L16.4142 10.1641Z" fill="black"/>
</svg>

<svg xmlns="http://www.w3.org/2000/svg" width="24" height="24" fill="currentColor" class="icon-shield-check-solid" viewBox="0 0 24 24">
  <mask id="a" width="20" height="20" x="2" y="2" maskUnits="userSpaceOnUse" style="mask-type:alpha">
    <path d="m12.508 2.117 7.344 3.125c.86.39 1.523 1.211 1.523 2.227-.039 3.906-1.64 10.976-8.36 14.218a2.4 2.4 0 0 1-2.07 0c-6.718-3.242-8.32-10.312-8.32-14.218-.039-1.016.625-1.836 1.485-2.227l7.343-3.125a1.25 1.25 0 0 1 1.055 0m3.906 8.047h-.039c.39-.351.39-.937 0-1.328a.92.92 0 0 0-1.289 0L10.75 13.21l-1.836-1.836c-.39-.39-.976-.39-1.328 0a.856.856 0 0 0 0 1.29l2.5 2.5c.352.39.938.39 1.328 0z"/>
  </mask>
  <g mask="url(#a)">
    <path d="M0 0h24v24H0z"/>
  </g>
</svg>
